X: 1
T: Portsmouth
O: 1701
M: C|
L: 1/8
K: G
D2 \
| "G"G3A BAGF | "C"E4 e4 | "G"d2B2 "C"cBAG | "D7"A6 D2 \
| "G"G3A BAGF | "C"E4 e4 | "G"d2B2 "D7"cBAB | "G"G6 :|
|: d2 \
| "G"g3a bagf | g2 d4 B2 | g2B2 "C"cBAG  | "D7"A6 D2 \
| "G"G3A BAGF | "C"E4 e4 | "G"d2B2 "D7"cBAB | "G"G6 :|
